public/assets/signin/instagram.svg

<svg width="24" height="25" viewBox="0 0 24 25" fill="none" xmlns="http://www.w3.org/2000/svg">
<path d="M9.70581 10.2019C10.3153 9.59241 11.142 9.25 12.0039 9.25C12.8659 9.25 13.6925 9.59241 14.302 10.2019C14.9115 10.8114 15.2539 11.638 15.2539 12.5C15.2539 13.362 14.9115 14.1886 14.302 14.7981C13.6925 15.4076 12.8659 15.75 12.0039 15.75C11.142 15.75 10.3153 15.4076 9.70581 14.7981C9.09632 14.1886 8.75391 13.362 8.75391 12.5C8.75391 11.638 9.09632 10.8114 9.70581 10.2019Z" fill="#202020"/>
<path fill-rule="evenodd" clip-rule="evenodd" d="M17.2347 3.58585C13.7587 3.20055 10.2507 3.20055 6.7747 3.58585C4.8757 3.79785 3.3447 5.29285 3.1217 7.19885C2.70943 10.7238 2.70943 14.2849 3.1217 17.8098C3.3447 19.7148 4.8757 21.2099 6.7747 21.4228C10.2511 21.8083 13.7594 21.8083 17.2357 21.4228C19.1337 21.2099 20.6647 19.7148 20.8877 17.8088C21.2999 14.2842 21.2999 10.7235 20.8877 7.19885C20.6647 5.29285 19.1337 3.79785 17.2347 3.58585ZM16.2976 6.79674C16.4851 6.60921 16.7395 6.50385 17.0047 6.50385C17.2699 6.50385 17.5243 6.60921 17.7118 6.79674C17.8993 6.98428 18.0047 7.23863 18.0047 7.50385C18.0047 7.76907 17.8993 8.02342 17.7118 8.21096C17.5243 8.39849 17.2699 8.50385 17.0047 8.50385C16.7395 8.50385 16.4851 8.39849 16.2976 8.21096C16.1101 8.02342 16.0047 7.76907 16.0047 7.50385C16.0047 7.23863 16.1101 6.98428 16.2976 6.79674ZM8.64595 9.14509C7.75515 10.0359 7.2547 11.2441 7.2547 12.5038C7.2547 13.7636 7.75515 14.9718 8.64595 15.8626C9.53675 16.7534 10.7449 17.2538 12.0047 17.2538C13.2645 17.2538 14.4727 16.7534 15.3635 15.8626C16.2543 14.9718 16.7547 13.7636 16.7547 12.5038C16.7547 11.2441 16.2543 10.0359 15.3635 9.14509C14.4727 8.25429 13.2645 7.75385 12.0047 7.75385C10.7449 7.75385 9.53675 8.25429 8.64595 9.14509Z" fill="#202020"/>
</svg>

<svg width="24" height="25" fill="none" xmlns="http://www.w3.org/2000/svg"><path d="M9.706 10.202a3.25 3.25 0 1 1 4.596 4.596 3.25 3.25 0 0 1-4.596-4.596Z" fill="#202020"/><path fill-rule="evenodd" clip-rule="evenodd" d="M17.235 3.586a47.472 47.472 0 0 0-10.46 0c-1.9.212-3.43 1.707-3.653 3.613a45.672 45.672 0 0 0 0 10.61c.223 1.906 1.754 3.4 3.653 3.614 3.476.385 6.984.385 10.46 0 1.899-.213 3.43-1.708 3.653-3.614a45.67 45.67 0 0 0 0-10.61c-.223-1.906-1.754-3.401-3.653-3.613Zm-.937 3.21a1 1 0 1 1 1.414 1.415 1 1 0 0 1-1.414-1.414Zm-7.652 2.35a4.75 4.75 0 1 0 6.718 6.717 4.75 4.75 0 0 0-6.718-6.718Z" fill="#202020"/></svg>
